public/images/case-studies/maikeinc/tech-icon4.svg

<svg width="154" height="47" viewBox="0 0 154 47" fill="none" xmlns="http://www.w3.org/2000/svg">
<path d="M46.4572 38.6739C46.4572 42.8467 43.043 46.2609 38.8702 46.2609H8.52248C4.34967 46.2609 0.935547 42.8467 0.935547 38.6739V8.32619C0.935547 4.15338 4.34967 0.739258 8.52248 0.739258H38.8702C43.043 0.739258 46.4572 4.15338 46.4572 8.32619V38.6739Z" fill="#563D7C"/>
<path d="M13.3052 10.6321H26.2104C28.5906 10.6321 30.5022 11.1751 31.9378 12.2685C33.3734 13.3619 34.0949 15.0057 34.0949 17.2149C34.0949 18.5537 33.7676 19.6992 33.113 20.6513C32.4585 21.6034 31.5213 22.3472 30.3014 22.8679V22.9423C31.9378 23.2918 33.18 24.0654 34.0205 25.263C34.861 26.4679 35.285 27.9705 35.285 29.7854C35.285 30.8267 35.099 31.8011 34.7271 32.7011C34.3552 33.6086 33.775 34.3896 32.9791 35.0442C32.1833 35.6987 31.1717 36.2194 29.9295 36.6062C28.6873 36.993 27.2146 37.1863 25.5038 37.1863H13.3052V10.6321ZM17.954 21.7521H25.541C26.6567 21.7521 27.5865 21.4397 28.3303 20.8001C29.0741 20.1604 29.446 19.2529 29.446 18.0628C29.446 16.7239 29.1113 15.7793 28.4419 15.2363C27.7724 14.6933 26.8055 14.4181 25.541 14.4181H17.954V21.7521ZM17.954 33.3929H26.1732C27.5865 33.3929 28.6873 33.0284 29.4609 32.292C30.2419 31.5631 30.6361 30.5217 30.6361 29.1829C30.6361 27.8663 30.2493 26.8622 29.4609 26.1481C28.6724 25.434 27.5865 25.0919 26.1732 25.0919H17.954V33.3929Z" fill="white"/>
<path d="M64.7983 24.1323C65.5664 24.3839 66.1756 24.8077 66.6258 25.4036C67.0761 25.9863 67.3012 26.7146 67.3012 27.5886C67.3012 28.7937 66.8377 29.7273 65.9107 30.3895C64.9837 31.0383 63.633 31.3628 61.8585 31.3628H54.9458V17.458H61.4612C63.1033 17.458 64.3679 17.7825 65.2552 18.4313C66.1425 19.067 66.5861 19.9476 66.5861 21.0733C66.5861 21.7619 66.4272 22.371 66.1094 22.9007C65.7915 23.4304 65.3545 23.841 64.7983 24.1323ZM57.5281 19.4841V23.3179H61.1831C62.0836 23.3179 62.7722 23.159 63.2489 22.8411C63.7389 22.5101 63.9839 22.0333 63.9839 21.4109C63.9839 20.7753 63.7389 20.2986 63.2489 19.9807C62.7722 19.6497 62.0836 19.4841 61.1831 19.4841H57.5281ZM61.6996 29.3367C63.6992 29.3367 64.699 28.6679 64.699 27.3304C64.699 25.9929 63.6992 25.3241 61.6996 25.3241H57.5281V29.3367H61.6996Z" fill="#563D7C"/>
<path d="M74.5861 31.5018C73.5135 31.5018 72.5468 31.2701 71.686 30.8066C70.8252 30.3431 70.1499 29.7008 69.6599 28.8798C69.1831 28.0455 68.9448 27.1053 68.9448 26.0591C68.9448 25.0129 69.1831 24.0793 69.6599 23.2583C70.1499 22.4372 70.8252 21.795 71.686 21.3315C72.5468 20.868 73.5135 20.6362 74.5861 20.6362C75.672 20.6362 76.6454 20.868 77.5062 21.3315C78.3669 21.795 79.0357 22.4372 79.5124 23.2583C80.0024 24.0793 80.2474 25.0129 80.2474 26.0591C80.2474 27.1053 80.0024 28.0455 79.5124 28.8798C79.0357 29.7008 78.3669 30.3431 77.5062 30.8066C76.6454 31.2701 75.672 31.5018 74.5861 31.5018ZM74.5861 29.3764C75.4999 29.3764 76.2547 29.0718 76.8506 28.4627C77.4466 27.8535 77.7445 27.0523 77.7445 26.0591C77.7445 25.0659 77.4466 24.2647 76.8506 23.6556C76.2547 23.0464 75.4999 22.7418 74.5861 22.7418C73.6724 22.7418 72.9176 23.0464 72.3217 23.6556C71.739 24.2647 71.4476 25.0659 71.4476 26.0591C71.4476 27.0523 71.739 27.8535 72.3217 28.4627C72.9176 29.0718 73.6724 29.3764 74.5861 29.3764Z" fill="#563D7C"/>
<path d="M87.3891 31.5018C86.3164 31.5018 85.3497 31.2701 84.489 30.8066C83.6282 30.3431 82.9528 29.7008 82.4628 28.8798C81.9861 28.0455 81.7477 27.1053 81.7477 26.0591C81.7477 25.0129 81.9861 24.0793 82.4628 23.2583C82.9528 22.4372 83.6282 21.795 84.489 21.3315C85.3497 20.868 86.3164 20.6362 87.3891 20.6362C88.475 20.6362 89.4483 20.868 90.3091 21.3315C91.1699 21.795 91.8386 22.4372 92.3154 23.2583C92.8053 24.0793 93.0503 25.0129 93.0503 26.0591C93.0503 27.1053 92.8053 28.0455 92.3154 28.8798C91.8386 29.7008 91.1699 30.3431 90.3091 30.8066C89.4483 31.2701 88.475 31.5018 87.3891 31.5018ZM87.3891 29.3764C88.3028 29.3764 89.0577 29.0718 89.6536 28.4627C90.2495 27.8535 90.5475 27.0523 90.5475 26.0591C90.5475 25.0659 90.2495 24.2647 89.6536 23.6556C89.0577 23.0464 88.3028 22.7418 87.3891 22.7418C86.4754 22.7418 85.7205 23.0464 85.1246 23.6556C84.5419 24.2647 84.2506 25.0659 84.2506 26.0591C84.2506 27.0523 84.5419 27.8535 85.1246 28.4627C85.7205 29.0718 86.4754 29.3764 87.3891 29.3764Z" fill="#563D7C"/>
<path d="M101.801 30.7867C101.51 31.0251 101.152 31.2039 100.728 31.3231C100.318 31.4422 99.8809 31.5018 99.4174 31.5018C98.252 31.5018 97.3515 31.1973 96.7159 30.5881C96.0802 29.9789 95.7624 29.0917 95.7624 27.9263V22.8213H94.0144V20.8349H95.7624V18.4115H98.2454V20.8349H101.086V22.8213H98.2454V27.8667C98.2454 28.3832 98.3712 28.7805 98.6228 29.0586C98.8744 29.3234 99.2386 29.4558 99.7153 29.4558C100.272 29.4558 100.735 29.3102 101.106 29.0188L101.801 30.7867Z" fill="#563D7C"/>
<path d="M107.121 31.5018C106.26 31.5018 105.419 31.3893 104.598 31.1642C103.777 30.939 103.122 30.6543 102.632 30.31L103.585 28.4229C104.062 28.7407 104.632 28.999 105.294 29.1976C105.969 29.383 106.631 29.4757 107.28 29.4757C108.763 29.4757 109.505 29.0851 109.505 28.3037C109.505 27.9329 109.313 27.6747 108.929 27.529C108.558 27.3834 107.955 27.2443 107.121 27.1119C106.247 26.9795 105.532 26.8272 104.976 26.655C104.433 26.4829 103.956 26.1849 103.546 25.7612C103.148 25.3241 102.95 24.7216 102.95 23.9535C102.95 22.9471 103.367 22.1459 104.201 21.55C105.049 20.9408 106.188 20.6362 107.618 20.6362C108.346 20.6362 109.074 20.7223 109.803 20.8945C110.531 21.0534 111.127 21.2719 111.591 21.55L110.637 23.4371C109.737 22.9074 108.724 22.6425 107.598 22.6425C106.87 22.6425 106.313 22.7551 105.929 22.9802C105.559 23.1921 105.373 23.4768 105.373 23.8343C105.373 24.2316 105.572 24.5163 105.969 24.6885C106.38 24.8474 107.009 24.9997 107.856 25.1454C108.704 25.2778 109.399 25.4301 109.942 25.6022C110.485 25.7744 110.948 26.0657 111.332 26.4763C111.73 26.8868 111.928 27.4695 111.928 28.2243C111.928 29.2175 111.498 30.012 110.637 30.608C109.776 31.2039 108.604 31.5018 107.121 31.5018Z" fill="#563D7C"/>
<path d="M120.443 30.7867C120.152 31.0251 119.794 31.2039 119.37 31.3231C118.96 31.4422 118.523 31.5018 118.059 31.5018C116.894 31.5018 115.993 31.1973 115.358 30.5881C114.722 29.9789 114.404 29.0917 114.404 27.9263V22.8213H112.656V20.8349H114.404V18.4115H116.887V20.8349H119.728V22.8213H116.887V27.8667C116.887 28.3832 117.013 28.7805 117.265 29.0586C117.516 29.3234 117.88 29.4558 118.357 29.4558C118.913 29.4558 119.377 29.3102 119.748 29.0188L120.443 30.7867Z" fill="#563D7C"/>
<path d="M124.849 22.3048C125.564 21.1924 126.822 20.6362 128.623 20.6362V23.0001C128.412 22.9603 128.22 22.9405 128.047 22.9405C127.081 22.9405 126.326 23.2252 125.783 23.7946C125.24 24.3508 124.968 25.1586 124.968 26.218V31.3628H122.485V20.7554H124.849V22.3048Z" fill="#563D7C"/>
<path d="M134.724 20.6362C136.286 20.6362 137.478 21.0137 138.299 21.7685C139.134 22.5101 139.551 23.6357 139.551 25.1454V31.3628H137.207V30.0716C136.902 30.5351 136.465 30.8927 135.896 31.1443C135.34 31.3827 134.664 31.5018 133.87 31.5018C133.075 31.5018 132.38 31.3694 131.784 31.1046C131.188 30.8265 130.725 30.449 130.394 29.9723C130.076 29.4823 129.917 28.9328 129.917 28.3236C129.917 27.3701 130.268 26.6087 130.97 26.0392C131.685 25.4566 132.804 25.1652 134.327 25.1652H137.068V25.0063C137.068 24.2647 136.843 23.6953 136.392 23.298C135.955 22.9007 135.3 22.7021 134.426 22.7021C133.83 22.7021 133.241 22.7948 132.658 22.9802C132.089 23.1656 131.605 23.4238 131.208 23.7549L130.235 21.9473C130.791 21.5235 131.46 21.1991 132.241 20.9739C133.022 20.7488 133.85 20.6362 134.724 20.6362ZM134.386 29.6942C135.009 29.6942 135.558 29.5552 136.035 29.2771C136.525 28.9857 136.869 28.5752 137.068 28.0455V26.8139H134.505C133.075 26.8139 132.36 27.2841 132.36 28.2243C132.36 28.6745 132.539 29.0321 132.896 29.2969C133.254 29.5618 133.751 29.6942 134.386 29.6942Z" fill="#563D7C"/>
<path d="M148.617 20.6362C149.65 20.6362 150.57 20.8614 151.378 21.3116C152.199 21.7619 152.842 22.3975 153.305 23.2186C153.769 24.0396 154 24.9865 154 26.0591C154 27.1318 153.769 28.0852 153.305 28.9195C152.842 29.7406 152.199 30.3762 151.378 30.8265C150.57 31.2767 149.65 31.5018 148.617 31.5018C147.187 31.5018 146.055 31.0251 145.22 30.0716V35.2164H142.737V20.7554H145.101V22.1459C145.512 21.6427 146.015 21.2653 146.611 21.0137C147.22 20.762 147.889 20.6362 148.617 20.6362ZM148.339 29.3764C149.253 29.3764 150.001 29.0718 150.584 28.4627C151.18 27.8535 151.478 27.0523 151.478 26.0591C151.478 25.0659 151.18 24.2647 150.584 23.6556C150.001 23.0464 149.253 22.7418 148.339 22.7418C147.743 22.7418 147.207 22.8809 146.73 23.159C146.253 23.4238 145.876 23.8079 145.598 24.3111C145.32 24.8143 145.181 25.397 145.181 26.0591C145.181 26.7212 145.32 27.3039 145.598 27.8071C145.876 28.3104 146.253 28.701 146.73 28.9791C147.207 29.244 147.743 29.3764 148.339 29.3764Z" fill="#563D7C"/>
</svg>

<svg xmlns="http://www.w3.org/2000/svg" xmlns:xlink="http://www.w3.org/1999/xlink" width="154" height="47" fill="none" xmlns:v="https://vecta.io/nano"><path d="M46.457 38.674c0 4.173-3.414 7.587-7.587 7.587H8.522c-4.173 0-7.587-3.414-7.587-7.587V8.326C.936 4.153 4.35.739 8.522.739H38.87c4.173 0 7.587 3.414 7.587 7.587v30.348z" fill="#563d7c"/><path d="M13.305 10.632H26.21c2.38 0 4.292.543 5.727 1.636s2.157 2.737 2.157 4.946c0 1.339-.327 2.484-.982 3.436s-1.592 1.696-2.812 2.217v.074c1.636.349 2.879 1.123 3.719 2.321.84 1.205 1.264 2.707 1.264 4.522 0 1.041-.186 2.016-.558 2.916-.372.908-.952 1.689-1.748 2.343s-1.807 1.175-3.05 1.562-2.715.58-4.426.58H13.305V10.632zm4.649 11.12h7.587c1.116 0 2.046-.312 2.789-.952s1.116-1.547 1.116-2.737c0-1.339-.335-2.283-1.004-2.826s-1.636-.818-2.901-.818h-7.587v7.334zm0 11.641h8.219c1.413 0 2.514-.364 3.288-1.101.781-.729 1.175-1.77 1.175-3.109 0-1.317-.387-2.321-1.175-3.035s-1.874-1.056-3.288-1.056h-8.219v8.301z" fill="#fff"/><g fill="#563d7c"><path d="M64.798 24.132c.768.252 1.377.675 1.828 1.271.45.583.675 1.311.675 2.185 0 1.205-.463 2.139-1.39 2.801-.927.649-2.278.973-4.052.973h-6.913V17.458h6.515c1.642 0 2.907.325 3.794.973.887.636 1.331 1.516 1.331 2.642 0 .689-.159 1.298-.477 1.827s-.755.94-1.311 1.232zm-7.27-4.648v3.834h3.655c.9 0 1.589-.159 2.066-.477.49-.331.735-.808.735-1.43 0-.636-.245-1.112-.735-1.43-.477-.331-1.165-.497-2.066-.497h-3.655zm4.171 9.853c2 0 2.999-.669 2.999-2.006s-1-2.006-2.999-2.006h-4.171v4.013H61.7z"/><use xlink:href="#B"/><use xlink:href="#B" x="12.803"/><path d="M101.801 30.787c-.291.238-.649.417-1.073.536a4.68 4.68 0 0 1-1.311.179c-1.165 0-2.066-.305-2.701-.914s-.954-1.496-.954-2.662v-5.105h-1.748v-1.986h1.748v-2.423h2.483v2.423h2.841v1.986h-2.841v5.045c0 .516.126.914.377 1.192.252.265.616.397 1.093.397.557 0 1.02-.146 1.391-.437l.695 1.768zm5.32.715a9.5 9.5 0 0 1-2.523-.338c-.821-.225-1.476-.51-1.966-.854l.953-1.887c.477.318 1.047.576 1.709.775.675.185 1.337.278 1.986.278 1.483 0 2.225-.391 2.225-1.172 0-.371-.192-.629-.576-.775-.371-.146-.974-.285-1.808-.417-.874-.132-1.589-.285-2.145-.457a3.39 3.39 0 0 1-1.43-.894c-.398-.437-.596-1.04-.596-1.808 0-1.006.417-1.808 1.251-2.403.848-.609 1.987-.914 3.417-.914.728 0 1.456.086 2.185.258.728.159 1.324.377 1.788.656l-.954 1.887c-.9-.53-1.913-.795-3.039-.795-.728 0-1.285.113-1.669.338-.37.212-.556.497-.556.854 0 .397.199.682.596.854.411.159 1.04.311 1.887.457.848.132 1.543.285 2.086.457a3.19 3.19 0 0 1 1.39.874c.398.411.596.993.596 1.748 0 .993-.43 1.788-1.291 2.384s-2.033.894-3.516.894zm13.322-.715c-.291.238-.649.417-1.073.536a4.68 4.68 0 0 1-1.311.179c-1.165 0-2.066-.305-2.701-.914s-.954-1.496-.954-2.662v-5.105h-1.748v-1.986h1.748v-2.423h2.483v2.423h2.841v1.986h-2.841v5.045c0 .516.126.914.378 1.192.251.265.615.397 1.092.397.556 0 1.02-.146 1.391-.437l.695 1.768zm4.406-8.482c.715-1.112 1.973-1.669 3.774-1.669V23a3.13 3.13 0 0 0-.576-.06c-.966 0-1.721.285-2.264.854-.543.556-.815 1.364-.815 2.423v5.145h-2.483V20.755h2.364v1.549zm9.875-1.669c1.562 0 2.754.378 3.575 1.132.835.742 1.252 1.867 1.252 3.377v6.217h-2.344v-1.291c-.305.463-.742.821-1.311 1.073-.556.238-1.232.357-2.026.357s-1.49-.132-2.086-.397c-.596-.278-1.059-.656-1.39-1.132-.318-.49-.477-1.04-.477-1.649 0-.953.351-1.715 1.053-2.284.715-.583 1.834-.874 3.357-.874h2.741v-.159c0-.742-.225-1.311-.676-1.708-.437-.397-1.092-.596-1.966-.596a5.8 5.8 0 0 0-1.768.278c-.569.185-1.053.444-1.45.775l-.973-1.808c.556-.424 1.225-.748 2.006-.973a8.93 8.93 0 0 1 2.483-.338zm-.338 9.058c.623 0 1.172-.139 1.649-.417a2.36 2.36 0 0 0 1.033-1.232v-1.232h-2.563c-1.43 0-2.145.47-2.145 1.41 0 .45.179.808.536 1.073s.855.397 1.49.397zm14.231-9.058c1.033 0 1.953.225 2.761.675a4.85 4.85 0 0 1 1.927 1.907c.464.821.695 1.768.695 2.841s-.231 2.026-.695 2.86a4.85 4.85 0 0 1-1.927 1.907c-.808.45-1.728.675-2.761.675-1.43 0-2.562-.477-3.397-1.43v5.145h-2.483V20.755h2.364v1.39a3.86 3.86 0 0 1 1.51-1.132c.609-.252 1.278-.378 2.006-.378zm-.278 8.74c.914 0 1.662-.305 2.245-.914.596-.609.894-1.41.894-2.404s-.298-1.794-.894-2.404c-.583-.609-1.331-.914-2.245-.914-.596 0-1.132.139-1.609.417a2.87 2.87 0 0 0-1.132 1.152c-.278.503-.417 1.086-.417 1.748s.139 1.245.417 1.748a3.01 3.01 0 0 0 1.132 1.172c.477.265 1.013.397 1.609.397z"/></g><defs ><path id="B" d="M74.586 31.502c-1.073 0-2.039-.232-2.9-.695a5.16 5.16 0 0 1-2.026-1.927c-.477-.834-.715-1.774-.715-2.821s.238-1.98.715-2.801a5.16 5.16 0 0 1 2.026-1.927c.861-.463 1.827-.695 2.9-.695 1.086 0 2.059.232 2.92.695a5.02 5.02 0 0 1 2.006 1.927c.49.821.735 1.755.735 2.801s-.245 1.986-.735 2.821a5.02 5.02 0 0 1-2.006 1.927c-.861.463-1.834.695-2.92.695zm0-2.125c.914 0 1.669-.305 2.264-.914s.894-1.41.894-2.404-.298-1.794-.894-2.404-1.351-.914-2.264-.914-1.669.305-2.264.914c-.583.609-.874 1.41-.874 2.404s.291 1.794.874 2.404c.596.609 1.351.914 2.264.914z"/></defs></svg>
